X: 273
T: Beni Ey Gonca Fem Bülbül
C: Sadullah Ağa
O: Turkey
F: http://compmusic.upf.edu/node/140
N: suzidil--agirsemai--aksaksemai--beni_ey--sadullah_aga
N: makam= suzidil
N: form= agirsemai
N: usul= aksaksemai = 10/8
M: 10/8
L: 1/16
K: C ^1/4f ^g ^d 
Q: 1/4=120
%%MIDI tuningsystem comma53
e4 d2e4g=f gfe3aga  | a4 gab2 agg=f2ee4d2  | 
w:  Ah  be ni  ey  *  *  *  gon  |  *  ca  *  fem  *  *  bül *  *  bül   | 
e4 g2=f3ge3fde d2f2  | edc2 e2=f3agf fee6  | 
w:  *  sı fat  *  nâ *  lân   |  *  *  *  e den  *  sen *  *  *  sin    | 
z4 e2a3bc'{d'}c'/{d'}b/ aga4g2  | \
w:  Câ nım  *  ya  *  *  *  *  *  *  lâ   | 
a4 gab2 agg=f efg4z2  | 
w:  *  ye  *  lel  *  *  lel  *  *  *  li   | 
a4 g2=f6 fee4ee  | d4 ddc2 c2BA GAB4z2  | \
w:  te  re  lel  le  le  lel  le  le   |  lel  le  le  lel  lel  lel  *  *  *  li   | 
B2c2 =d2e4de d2cd c2B2  | 
w:  te  re  li  ye  lel  *  *  li  *  *  ye   | 
=d4 B2c3e^dc BAB4A2  | G4 A2B4cB cBB4z2  | \
w:  lel  *  le  *  le  *  *  *  le  le   |  lel  le  le  lel  *  *  *  li   | 
e4 =d2cB A2B3/2c/ Bcd2 c2BA  | 
w:  Ah  *  *  *  *  bî *  *  *  çâ  | 
G4 BcBA2GG=F FEE4z2  | e4 d2e4g=f gfe3aga  | 
w:  *  re *  nem  *  *  ey  *  *  *  yâr    |  Ah  be ni  ey  *  *  *  gon  | 
a4 gab2 agg=f2ee4d2  | e4 g2=f3ge3fde d2f2  | 
w:  *  ca  *  fem  *  *  bül *  *  bül   |  *  sı fat  *  nâ *  lân   | 
edc2 e2=f3agf fee6  | z4 e2a3bc'{d'}c'/{d'}b/ aga4g2  | 
w:  *  *  *  e den  *  sen *  *  *  sin    |  Câ nım  *  ya  *  *  *  *  *  *  lâ   | 
a4 gab2 agg=f efg4z2  | a4 g2=f6 fee4ee  | \
w:  *  ye  *  lel  *  *  lel  *  *  *  li   |  te  re  lel  le  le  lel  le  le   | 
d4 ddc2 c2BA GAB4z2  | 
w:  lel  le  le  lel  lel  lel  *  *  *  li   | 
B2c2 =d2e4de d2cd c2B2  | =d4 B2c3e^dc BAB4A2  | 
w:  te  re  li  ye  lel  *  *  li  *  *  ye   |  lel  *  le  *  le  *  *  *  le  le   | 
G4 A2B4cB cBB4z2  | e4 =d2cB A2B3/2c/ Bcd2 c2BA  | 
w:  lel  le  le  lel  *  *  *  li   |  Ah  *  *  *  *  bî *  *  *  çâ  | 
G4 BcBA2GG=F FEE4z2  | a4 e2a4ga baa4=g^9/8f  | 
w:  *  re *  nem  *  *  ey  *  *  *  yâr    |  Ah  no la  sen  *  *  *  den   | 
e=d^3/4cB cde^2/4f gagf eda4g2  | \
w:  *  *  *  *  e *  der *  *  *  sem  *  *  *  hûn_  | 
a4 g2.a4ag ac'ba g2=f2  | 
w:  *  ı  nâ hak  *  *  *  keş  | 
g3=f e2a3bgf2ee4z2  | z4 e2a3bc'{d'}c'/{d'}b/ aga4g2  | 
w:  *  *  te mi  *  dâ *  *  vâ    |  Câ nım  *  ya  *  *  *  *  *  *  lâ   | 
a4 gab2 agg=f efg4z2  | a4 g2=f6 fee4ee  | \
w:  *  ye  *  lel  *  *  lel  *  *  *  li   |  te  re  lel  le  le  lel  le  le   | 
d4 ddc2 c2BA GAB4z2  | 
w:  lel  le  le  lel  lel  lel  *  *  *  li   | 
B2c2 =d2e4de d2cd c2B2  | =d4 B2c3e^dc BAB4A2  | 
w:  te  re  li  ye  lel  *  *  li  *  *  ye   |  lel  *  le  *  le  *  *  *  le  le   | 
G4 A2B4cB cBB4z2  | e4 =d2cB A2B3/2c/ Bcd2 c2BA  | 
w:  lel  le  le  lel  *  *  *  li   |  Ah  *  *  *  *  bî *  *  *  çâ  | 
G4 BcBA2GG=F FEE4z2  | e4 d2e4g=f gfe3aga  | 
w:  *  re *  nem  *  *  ey  *  *  *  yâr    |  Ah  de mâ dem  *  *  *  bağ  | 
a4 gab2 agg=f2ee4d2  | e4 g2=f3ge3fde d2f2  | 
w:  *  rı *  mı  *  *  has *  *  ret  |  *  le  zî *  râ  *  kan   | 
edc2 e2=f3agf fee6  | z4 e2a3bc'{d'}c'/{d'}b/ aga4g2  | 
w:  *  *  *  e den  *  sen *  *  *  sin    |  Câ nım  *  ya  *  *  *  *  *  *  lâ   | 
a4 gab2 agg=f efg4z2  | a4 g2=f6 fee4ee  | \
w:  *  ye  *  lel  *  *  lel  *  *  *  li   |  te  re  lel  le  le  lel  le  le   | 
d4 ddc2 c2BA GAB4z2  | 
w:  lel  le  le  lel  lel  lel  *  *  *  li   | 
B2c2 =d2e4de d2cd c2B2  | =d4 B2c3e^dc BAB4A2  | 
w:  te  re  li  ye  lel  *  *  li  *  *  ye   |  lel  *  le  *  le  *  *  *  le  le   | 
G4 A2B4cB cBB4z2  | e4 =d2cB A2B3/2c/ Bcd2 c2BA  | 
w:  lel  le  le  lel  *  *  *  li   |  Ah  *  *  *  *  bî *  *  *  çâ  | 
G4 BcBA2GG=F FEE4z2  | |


